X:247
T:Steirische Jodler und Taenze Nr. 1 - 48 (45.)
C:traditionell
A:Salzkammergut
S:MIDI erhalten von Christian Amon. Nach einer kopie im besitz von Johann Stoeckl eines manuscriptes. Stoeckl(zitiert von Amon): "diese sammlung wurde 1935 im hause der familie Hohenlohe-Schillingfuerst gefunden. Sie wurde von einem der beiden brueder Steinegger 1866 verfasst. Die originale sind im Ausseer Kammerhofmuseum".
M:2/4
L:1/8
K:G
V:1
d2 da | d2 Bg | c2 Af | d2 Bg |\
d2 da | d2 Bg | c2 Af | g4 |*
V:2
fac'd | b2 gB | a2 fd | b2 gB |\
fac'd | b2 gB | a2 fd | B4 |*
